X:26
T: Tall Timbers
C: Bill Monroe (B Part Barry Mitterhoff)
S: MandoZine TablEdit Archives
Z: TablEdited by Mike Stangeland for MandoZine
L: 1/8
Q: 618
M: 4/4
K: G
 z8 |: "G"g2 g"Fiddle Break - A"a ge dg | ed dg ed de | ge ga ge dg | ed dg ed de |
 ge ga ge dg | ed dg ed de | "D"BA GB AG EG |1 DE GB "G"AG ef :|2 DE GB "G"AG G2 |
|: "G"DE GA BA Bc | dc BA G2 GB | "C"cB cd c2 cd | ef gf ed cB | "G"DE GA BA Bc |
 dc BA G2 FG | DF AB cB cA | "G"G2 GA G4 :|
